N0010 (Filename: EndPlate Gauge.tap)
N0020 (Post processor: Dynatorch.scpost)
N0030 (Date: 14/08/2022)
N0040 G20 (Units: Inches)
N0050 G90
N0060 G17
N0070 (Part: EndPlate Gauge)
N0080 (Operation: Inside Offset, Hole, T43: 1/4 85A MILD STEEL)
N0090 G60
N0100 F130
N0110 G00 X0.9848 Y0.8237
N0120 G23
N0130 G02 X1.0957 Y0.8457 I0.0665 J-0.0444
N0140 G02 X1.1354 Y0.7500 I-0.0957 J-0.0957
N0150 G02 X1.0000 Y0.6146 I-0.1354 J0.0000
N0160 G02 X0.8646 Y0.7500 I0.0000 J0.1354
N0170 G02 X1.0000 Y0.8854 I0.1354 J0.0000
N0180 G02 X1.0957 Y0.8457 I0.0000 J-0.1354
N0190 (Operation: Outside Offset, Outside cut1, T43: 1/4 85A MILD STEEL)
N0200 G25
N0210 G00 X1.7775 Y0.8665
N0220 G23
N0230 G02 X1.6975 Y0.7865 I-0.0800 J0.0000
N0240 G01 X1.4330 Y0.7865
N0250 G02 X1.4073 Y0.8088 I0.0000 J0.0260
N0260 G03 X1.0000 Y1.1615 I-0.4073 J-0.0588
N0270 G03 X0.5927 Y0.8088 I0.0000 J-0.4115
N0280 G02 X0.5670 Y0.7865 I-0.0257 J0.0037
N0290 G01 X0.1250 Y0.7865
N0300 G03 X-0.0365 Y0.6250 I0.0000 J-0.1615
N0310 G01 X-0.0365 Y0.1250
N0320 G03 X0.1250 Y-0.0365 I0.1615 J0.0000
N0330 G01 X1.8750 Y-0.0365
N0340 G03 X2.0365 Y0.1250 I0.0000 J0.1615
N0350 G01 X2.0365 Y0.6250
N0360 G03 X1.8750 Y0.7865 I-0.1615 J-0.0000
N0370 G01 X1.6975 Y0.7865
N0380 G02 X1.6175 Y0.8665 I0.0000 J0.0800
N0390 G25
N0400 G25
N0410 M30
