N0010 (Filename: Rectangle End plates.tap)
N0020 (Post processor: Dynatorch.scpost)
N0030 (Date: 14/08/2022)
N0040 G20 (Units: Inches)
N0050 G90
N0060 G17
N0070 (Part: Rectangle End plates)
N0080 (Operation: Outside Offset, Outside cut1, T43: 1/4 85A MILD STEEL)
N0090 G60
N0100 F130
N0110 G00 X0.9786 Y2.7885
N0120 G23
N0130 G02 X0.8671 Y2.8079 I-0.0460 J0.0654
N0140 G03 X0.7350 Y2.8765 I-0.1321 J-0.0929
N0150 G01 X0.1250 Y2.8765
N0160 G03 X0.0108 Y2.8292 I-0.0000 J-0.1615
N0170 G03 X-0.0365 Y2.7150 I0.1142 J-0.1142
N0180 G01 X-0.0365 Y0.1250
N0190 G03 X0.0108 Y0.0108 I0.1615 J0.0000
N0200 G03 X0.1250 Y-0.0365 I0.1142 J0.1142
N0210 G01 X0.7350 Y-0.0365
N0220 G03 X0.8492 Y0.0108 I0.0000 J0.1615
N0230 G03 X0.8965 Y0.1250 I-0.1142 J0.1142
N0240 G01 X0.8965 Y0.7356
N0250 G03 X0.8728 Y0.7999 I-0.0990 J0.0000
N0260 G02 X0.8728 Y1.1201 I0.1872 J0.1601
N0270 G03 X0.8965 Y1.1844 I-0.0753 J0.0643
N0280 G01 X0.8965 Y2.7150
N0290 G03 X0.8671 Y2.8079 I-0.1615 J-0.0000
N0300 G02 X0.8866 Y2.9193 I0.0654 J0.0460
N0310 G25
N0320 G25
N0330 M30
