N0010 (Filename: Rectangle End plates center array 3.tap)
N0020 (Post processor: Dynatorch.scpost)
N0030 (Date: 14/08/2022)
N0040 G20 (Units: Inches)
N0050 G90
N0060 G17
N0070 (Part: Rectangle End plates)
N0080 (Operation: No Offset, Outside cut1, T43: 1/4 85A MILD STEEL)
N0090 G60
N0100 F130
N0110 G00 X0.9487 Y2.7675
N0120 G23
N0130 G02 X0.8373 Y2.7869 I-0.0460 J0.0654
N0140 G03 X0.7350 Y2.8400 I-0.1023 J-0.0719
N0150 G01 X0.1250 Y2.8400
N0160 G03 X0.0366 Y2.8034 I-0.0000 J-0.1250
N0170 G03 X0.0000 Y2.7150 I0.0884 J-0.0884
N0180 G01 X0.0000 Y0.1250
N0190 G03 X0.0366 Y0.0366 I0.1250 J0.0000
N0200 G03 X0.1250 Y0.0000 I0.0884 J0.0884
N0210 G01 X0.7350 Y0.0000
N0220 G03 X0.8234 Y0.0366 I0.0000 J0.1250
N0230 G03 X0.8600 Y0.1250 I-0.0884 J0.0884
N0240 G01 X0.8600 Y0.7356
N0250 G03 X0.8450 Y0.7762 I-0.0625 J0.0000
N0260 G02 X0.8450 Y1.1438 I0.2150 J0.1838
N0270 G03 X0.8600 Y1.1844 I-0.0475 J0.0406
N0280 G01 X0.8600 Y2.7150
N0290 G03 X0.8373 Y2.7869 I-0.1250 J-0.0000
N0300 (Part: Rectangle End plates Duplicate 1)
N0310 G02 X0.8567 Y2.8983 I0.0654 J0.0460
N0320 (Operation: No Offset, Outside cut1, T43: 1/4 85A MILD STEEL)
N0330 G25
N0340 G00 X1.9337 Y2.7675
N0350 G23
N0360 G02 X1.8223 Y2.7869 I-0.0460 J0.0654
N0370 G03 X1.7200 Y2.8400 I-0.1023 J-0.0719
N0380 G01 X1.1100 Y2.8400
N0390 G03 X1.0216 Y2.8034 I-0.0000 J-0.1250
N0400 G03 X0.9850 Y2.7150 I0.0884 J-0.0884
N0410 G01 X0.9850 Y0.1250
N0420 G03 X1.0216 Y0.0366 I0.1250 J0.0000
N0430 G03 X1.1100 Y0.0000 I0.0884 J0.0884
N0440 G01 X1.7200 Y0.0000
N0450 G03 X1.8084 Y0.0366 I0.0000 J0.1250
N0460 G03 X1.8450 Y0.1250 I-0.0884 J0.0884
N0470 G01 X1.8450 Y0.7356
N0480 G03 X1.8300 Y0.7762 I-0.0625 J0.0000
N0490 G02 X1.8300 Y1.1438 I0.2150 J0.1838
N0500 G03 X1.8450 Y1.1844 I-0.0475 J0.0406
N0510 G01 X1.8450 Y2.7150
N0520 G03 X1.8223 Y2.7869 I-0.1250 J-0.0000
N0530 (Part: Rectangle End plates Duplicate 2)
N0540 G02 X1.8417 Y2.8983 I0.0654 J0.0460
N0550 (Operation: No Offset, Outside cut1, T43: 1/4 85A MILD STEEL)
N0560 G25
N0570 G00 X2.9187 Y2.7675
N0580 G23
N0590 G02 X2.8073 Y2.7869 I-0.0460 J0.0654
N0600 G03 X2.7050 Y2.8400 I-0.1023 J-0.0719
N0610 G01 X2.0950 Y2.8400
N0620 G03 X2.0066 Y2.8034 I-0.0000 J-0.1250
N0630 G03 X1.9700 Y2.7150 I0.0884 J-0.0884
N0640 G01 X1.9700 Y0.1250
N0650 G03 X2.0066 Y0.0366 I0.1250 J0.0000
N0660 G03 X2.0950 Y0.0000 I0.0884 J0.0884
N0670 G01 X2.7050 Y0.0000
N0680 G03 X2.7934 Y0.0366 I0.0000 J0.1250
N0690 G03 X2.8300 Y0.1250 I-0.0884 J0.0884
N0700 G01 X2.8300 Y0.7356
N0710 G03 X2.8150 Y0.7762 I-0.0625 J0.0000
N0720 G02 X2.8150 Y1.1438 I0.2150 J0.1838
N0730 G03 X2.8300 Y1.1844 I-0.0475 J0.0406
N0740 G01 X2.8300 Y2.7150
N0750 G03 X2.8073 Y2.7869 I-0.1250 J-0.0000
N0760 G02 X2.8267 Y2.8983 I0.0654 J0.0460
N0770 G25
N0780 G25
N0790 M30
