N0010 (Filename: Square End plates.tap)
N0020 (Post processor: Dynatorch.scpost)
N0030 (Date: 14/08/2022)
N0040 G20 (Units: Inches)
N0050 G90
N0060 G17
N0070 (Part: Square End plates)
N0080 (Operation: No Offset, Outside cut1, T43: 1/4 85A MILD STEEL)
N0090 G60
N0100 F130
N0110 G00 X1.5585 Y0.4567
N0120 G23
N0130 G02 X1.4772 Y0.5353 I-0.0013 J0.0800
N0140 G02 X1.5450 Y0.7238 I0.2828 J0.0047
N0150 G03 X1.5600 Y0.7644 I-0.0475 J0.0406
N0160 G01 X1.5600 Y1.4350
N0170 G03 X1.4350 Y1.5600 I-0.1250 J-0.0000
N0180 G01 X0.1250 Y1.5600
N0190 G03 X0.0000 Y1.4350 I0.0000 J-0.1250
N0200 G01 X0.0000 Y0.1250
N0210 G03 X0.1250 Y-0.0000 I0.1250 J-0.0000
N0220 G01 X1.4350 Y-0.0000
N0230 G03 X1.5600 Y0.1250 I0.0000 J0.1250
N0240 G01 X1.5600 Y0.3156
N0250 G03 X1.5450 Y0.3562 I-0.0625 J0.0000
N0260 G02 X1.4772 Y0.5353 I0.2150 J0.1838
N0270 G02 X1.5559 Y0.6166 I0.0800 J0.0013
N0280 G25
N0290 G25
N0300 M30
