N0010 (Filename: Square End plates arr 4.tap)
N0020 (Post processor: Dynatorch.scpost)
N0030 (Date: 14/08/2022)
N0040 G20 (Units: Inches)
N0050 G90
N0060 G17
N0070 (Part: Square End plates)
N0080 (Operation: No Offset, Outside cut1, T43: 1/4 85A MILD STEEL)
N0090 G60
N0100 F130
N0110 G00 X1.5585 Y0.4567
N0120 G23
N0130 G02 X1.4772 Y0.5353 I-0.0013 J0.0800
N0140 G02 X1.5450 Y0.7238 I0.2828 J0.0047
N0150 G03 X1.5600 Y0.7644 I-0.0475 J0.0406
N0160 G01 X1.5600 Y1.4350
N0170 G03 X1.4350 Y1.5600 I-0.1250 J-0.0000
N0180 G01 X0.1250 Y1.5600
N0190 G03 X0.0000 Y1.4350 I0.0000 J-0.1250
N0200 G01 X0.0000 Y0.1250
N0210 G03 X0.1250 Y-0.0000 I0.1250 J-0.0000
N0220 G01 X1.4350 Y-0.0000
N0230 G03 X1.5600 Y0.1250 I0.0000 J0.1250
N0240 G01 X1.5600 Y0.3156
N0250 G03 X1.5450 Y0.3562 I-0.0625 J0.0000
N0260 G02 X1.4772 Y0.5353 I0.2150 J0.1838
N0270 (Part: Square End plates Duplicate 1)
N0280 G02 X1.5559 Y0.6166 I0.0800 J0.0013
N0290 (Operation: No Offset, Outside cut1, T43: 1/4 85A MILD STEEL)
N0300 G25
N0310 G00 X3.2435 Y0.4567
N0320 G23
N0330 G02 X3.1622 Y0.5353 I-0.0013 J0.0800
N0340 G02 X3.2300 Y0.7238 I0.2828 J0.0047
N0350 G03 X3.2450 Y0.7644 I-0.0475 J0.0406
N0360 G01 X3.2450 Y1.4350
N0370 G03 X3.1200 Y1.5600 I-0.1250 J-0.0000
N0380 G01 X1.8100 Y1.5600
N0390 G03 X1.6850 Y1.4350 I0.0000 J-0.1250
N0400 G01 X1.6850 Y0.1250
N0410 G03 X1.8100 Y-0.0000 I0.1250 J-0.0000
N0420 G01 X3.1200 Y-0.0000
N0430 G03 X3.2450 Y0.1250 I0.0000 J0.1250
N0440 G01 X3.2450 Y0.3156
N0450 G03 X3.2300 Y0.3562 I-0.0625 J0.0000
N0460 G02 X3.1622 Y0.5353 I0.2150 J0.1838
N0470 (Part: Square End plates Duplicate 2)
N0480 G02 X3.2409 Y0.6166 I0.0800 J0.0013
N0490 (Operation: No Offset, Outside cut1, T43: 1/4 85A MILD STEEL)
N0500 G25
N0510 G00 X4.9285 Y0.4567
N0520 G23
N0530 G02 X4.8472 Y0.5353 I-0.0013 J0.0800
N0540 G02 X4.9150 Y0.7238 I0.2828 J0.0047
N0550 G03 X4.9300 Y0.7644 I-0.0475 J0.0406
N0560 G01 X4.9300 Y1.4350
N0570 G03 X4.8050 Y1.5600 I-0.1250 J-0.0000
N0580 G01 X3.4950 Y1.5600
N0590 G03 X3.3700 Y1.4350 I0.0000 J-0.1250
N0600 G01 X3.3700 Y0.1250
N0610 G03 X3.4950 Y-0.0000 I0.1250 J-0.0000
N0620 G01 X4.8050 Y-0.0000
N0630 G03 X4.9300 Y0.1250 I0.0000 J0.1250
N0640 G01 X4.9300 Y0.3156
N0650 G03 X4.9150 Y0.3562 I-0.0625 J0.0000
N0660 G02 X4.8472 Y0.5353 I0.2150 J0.1838
N0670 (Part: Square End plates Duplicate 3)
N0680 G02 X4.9259 Y0.6166 I0.0800 J0.0013
N0690 (Operation: No Offset, Outside cut1, T43: 1/4 85A MILD STEEL)
N0700 G25
N0710 G00 X6.6135 Y0.4567
N0720 G23
N0730 G02 X6.5322 Y0.5353 I-0.0013 J0.0800
N0740 G02 X6.6000 Y0.7238 I0.2828 J0.0047
N0750 G03 X6.6150 Y0.7644 I-0.0475 J0.0406
N0760 G01 X6.6150 Y1.4350
N0770 G03 X6.4900 Y1.5600 I-0.1250 J-0.0000
N0780 G01 X5.1800 Y1.5600
N0790 G03 X5.0550 Y1.4350 I0.0000 J-0.1250
N0800 G01 X5.0550 Y0.1250
N0810 G03 X5.1800 Y-0.0000 I0.1250 J-0.0000
N0820 G01 X6.4900 Y-0.0000
N0830 G03 X6.6150 Y0.1250 I0.0000 J0.1250
N0840 G01 X6.6150 Y0.3156
N0850 G03 X6.6000 Y0.3562 I-0.0625 J0.0000
N0860 G02 X6.5322 Y0.5353 I0.2150 J0.1838
N0870 G02 X6.6109 Y0.6166 I0.0800 J0.0013
N0880 G25
N0890 G25
N0900 M30
